public/media/icons-technologies/GITHUB.svg

<svg width="140" height="140" viewBox="0 0 140 140" fill="none" xmlns="http://www.w3.org/2000/svg">
<g clip-path="url(#clip0_205_1453)">
<path d="M10 69.9999C10 53.4375 15.8594 39.2968 27.5782 27.5781C39.2968 15.8594 53.4375 10 70.0001 10C86.5624 10 100.703 15.8594 112.422 27.5781C124.141 39.2968 130 53.4375 130 69.9999C130 86.5624 124.141 100.703 112.422 112.422C100.703 124.141 86.5625 130 70.0001 130C53.4375 130 39.2968 124.141 27.5782 112.422C15.8594 100.703 10 86.5623 10 69.9999ZM16.5625 69.9999C16.5625 84.6875 21.7969 97.2655 32.2656 107.734C42.7343 118.203 55.3125 123.438 70.0001 123.438C84.6875 123.438 97.2657 118.203 107.734 107.734C118.203 97.2657 123.438 84.6875 123.438 69.9999C123.438 55.3125 118.203 42.7343 107.734 32.2656C97.2657 21.7969 84.6874 16.5625 70.0001 16.5625C55.3125 16.5625 42.7345 21.7969 32.2656 32.2656C21.7969 42.7343 16.5625 55.3125 16.5625 69.9999ZM33.4376 82.8905C33.1251 82.578 33.1251 82.2655 33.4376 81.953C34.0625 81.328 34.8438 81.0937 35.7812 81.2499C36.7187 81.4062 37.2656 81.5624 37.4218 81.7187C38.5156 82.1874 39.7266 83.2421 41.0546 84.8828C42.3826 86.5234 43.4373 87.6562 44.2187 88.2812C47.9687 91.4062 51.7967 91.6405 55.703 88.9843C56.0155 87.8905 56.5233 86.953 57.2263 86.1717C57.9293 85.3904 58.5936 84.8437 59.2186 84.5311C59.8437 84.2186 60.9374 83.7498 62.4999 83.1248C57.3436 82.6561 53.164 81.7576 49.9608 80.4294C46.7577 79.1013 44.2186 77.4217 42.3436 75.3904C39.8436 72.5779 38.3201 68.9061 37.7732 64.3748C37.2262 59.8436 37.5779 55.703 38.828 51.953C39.7655 49.6092 41.0936 47.5 42.8122 45.6248C41.5622 41.7186 41.7966 37.2655 43.5154 32.2655C48.5153 32.578 53.0466 34.2967 57.1091 37.4217C64.9216 35.3905 73.0466 35.3124 81.4839 37.1874C82.5777 36.4061 84.2574 35.4296 86.5229 34.2576C88.7886 33.0857 91.6402 32.4216 95.0777 32.2654C95.7027 33.9841 96.1324 36.0154 96.3668 38.3591C96.6012 40.7029 96.484 42.8904 96.0153 44.9216C99.6089 48.6716 101.484 53.6716 101.64 59.9216C101.64 64.9216 100.781 69.0622 99.0622 72.3434C97.3434 75.6247 94.2966 78.3591 89.9216 80.5464C86.9528 81.9528 83.0466 82.8121 78.2028 83.1246C80.3904 84.2183 81.9919 85.3512 83.0076 86.5231C84.0233 87.6949 84.6873 89.5308 84.9999 92.0308V99.4138L85.2342 106.562C85.7029 107.344 86.2499 108.008 86.8749 108.555C87.4999 109.101 88.0468 109.492 88.5155 109.726C88.9842 109.961 89.1405 110.312 88.9842 110.781C88.8279 111.25 88.2029 111.484 87.1093 111.484C84.4529 111.484 82.3437 110.547 80.7812 108.672C80.3124 107.89 80.0781 106.953 80.0781 105.859V94.6092C80.0781 93.3592 79.7656 92.4607 79.1406 91.9138C78.5156 91.3668 77.8906 91.0153 77.2656 90.8591V105.625C77.2656 108.281 77.5781 110 78.2031 110.781C78.8281 111.562 79.2187 112.344 79.375 113.125C79.5313 113.281 79.4141 113.398 79.0234 113.476C78.6329 113.554 77.9688 113.437 77.0312 113.125C74.9999 112.656 73.5937 111.601 72.8124 109.961C72.0312 108.32 71.6406 106.562 71.6406 104.687V90.1562H68.5937V104.687C68.5937 106.562 68.2029 108.359 67.4217 110.078C66.3281 112.266 64.2967 113.437 61.3281 113.594C60.8593 113.437 60.6249 113.281 60.6249 113.125C60.7812 112.969 61.25 112.188 62.0312 110.781C62.1875 110.469 62.3828 109.844 62.6172 108.906C62.8517 107.969 62.9688 106.875 62.9688 105.625V90.8593C62.3438 91.0155 61.7578 91.367 61.2109 91.914C60.6641 92.461 60.3906 93.3594 60.3906 94.6094V105.859C60.3906 106.953 60.1562 107.891 59.6875 108.672C58.2812 110.547 56.1718 111.485 53.3595 111.485C52.2657 111.485 51.6407 111.25 51.4845 110.781C51.3281 110.469 51.3672 110.195 51.6017 109.961C51.8362 109.727 52.1877 109.453 52.6564 109.141C53.1252 108.828 53.4377 108.594 53.5939 108.438C54.2189 107.969 54.6876 107.344 55.0002 106.563C55.4689 105.938 55.5861 104.297 55.3517 101.641C55.1173 98.9844 55.0782 97.2657 55.2344 96.4844C51.1718 97.8907 47.0313 97.1874 42.8125 94.375C41.5625 93.125 40.3125 91.328 39.0625 88.9844C38.125 87.2655 36.25 85.2343 33.4376 82.8905Z" fill="black"/>
</g>
<defs>
<clipPath id="clip0_205_1453">
<rect width="120" height="120" fill="white" transform="translate(10 10)"/>
</clipPath>
</defs>
</svg>

<svg xmlns="http://www.w3.org/2000/svg" fill="none" viewBox="0 0 140 140">
  <g clip-path="url(#a)">
    <path fill="#000" d="M10 70c0-16.56 5.86-30.7 17.58-42.42C39.3 15.86 53.44 10 70 10c16.56 0 30.7 5.86 42.42 17.58C124.14 39.3 130 53.44 130 70c0 16.56-5.86 30.7-17.58 42.42C100.7 124.14 86.56 130 70 130c-16.56 0-30.7-5.86-42.42-17.58C15.86 100.7 10 86.56 10 70Zm6.56 0c0 14.69 5.24 27.27 15.7 37.73 10.47 10.47 23.05 15.7 37.74 15.7 14.69 0 27.27-5.23 37.73-15.7 10.47-10.46 15.7-23.04 15.7-37.73 0-14.69-5.23-27.27-15.7-37.73C97.27 21.8 84.7 16.57 70 16.57c-14.69 0-27.27 5.23-37.73 15.7C21.8 42.73 16.57 55.3 16.57 70Zm16.88 12.9c-.31-.32-.31-.63 0-.95.62-.62 1.4-.86 2.34-.7.94.16 1.49.31 1.64.47 1.1.47 2.3 1.52 3.63 3.16a23.87 23.87 0 0 0 3.17 3.4c3.75 3.13 7.58 3.36 11.48.7.32-1.09.82-2.03 1.53-2.8a7.1 7.1 0 0 1 1.99-1.65c.62-.31 1.72-.78 3.28-1.4-5.16-.47-9.34-1.37-12.54-2.7-3.2-1.33-5.74-3-7.62-5.04-2.5-2.81-4.02-6.48-4.57-11.02-.54-4.53-.2-8.67 1.06-12.42a20.64 20.64 0 0 1 3.98-6.33c-1.25-3.9-1.01-8.35.7-13.35 5 .3 9.54 2.03 13.6 5.15a51.35 51.35 0 0 1 24.37-.23c1.1-.78 2.78-1.76 5.04-2.93 2.27-1.17 5.12-1.84 8.56-2a25.28 25.28 0 0 1 1.29 6.1c.23 2.34.11 4.53-.35 6.56 3.59 3.75 5.46 8.75 5.62 15 0 5-.86 9.14-2.58 12.42-1.72 3.28-4.76 6.02-9.14 8.2-2.97 1.41-6.87 2.27-11.72 2.58 2.19 1.1 3.8 2.23 4.8 3.4 1.02 1.17 1.69 3.01 2 5.51v7.38l.23 7.15a8.27 8.27 0 0 0 1.64 2c.63.54 1.18.93 1.65 1.17.46.23.62.58.46 1.05-.15.47-.78.7-1.87.7a7.8 7.8 0 0 1-6.33-2.8 5.37 5.37 0 0 1-.7-2.82V94.6c0-1.25-.31-2.15-.94-2.7a4.57 4.57 0 0 0-1.87-1.05v14.77c0 2.65.3 4.37.93 5.15a5.52 5.52 0 0 1 1.17 2.34c.16.16.04.28-.35.36a4.54 4.54 0 0 1-1.99-.36c-2.03-.46-3.44-1.52-4.22-3.16a12.11 12.11 0 0 1-1.17-5.27V90.16H68.6v14.53c0 1.87-.39 3.67-1.17 5.39-1.1 2.19-3.12 3.36-6.1 3.51-.46-.15-.7-.3-.7-.47.16-.15.63-.93 1.41-2.34a13.61 13.61 0 0 0 .94-5.16V90.86a3.8 3.8 0 0 0-1.76 1.05c-.55.55-.82 1.45-.82 2.7v11.25c0 1.1-.23 2.03-.7 2.81-1.4 1.88-3.52 2.81-6.33 2.81-1.1 0-1.72-.23-1.88-.7-.15-.31-.11-.59.12-.82.24-.23.59-.5 1.06-.82.47-.31.78-.55.93-.7.63-.47 1.1-1.1 1.41-1.88.47-.62.59-2.26.35-4.92-.23-2.66-.27-4.37-.12-5.16-4.06 1.41-8.2.7-12.42-2.1a22.9 22.9 0 0 1-3.75-5.4c-.94-1.71-2.81-3.75-5.62-6.09Z"/>
  </g>
  <defs>
    <clipPath id="a">
      <path fill="#fff" d="M0 0h120v120H0z" transform="translate(10 10)"/>
    </clipPath>
  </defs>
</svg>
